src/cmd/32/outlinemode.svg

<svg viewBox="0 0 32 32" xmlns="http://www.w3.org/2000/svg"><path d="m4 5v7h7v-7zm1 1h5v5h-5zm8 0v1h15v-1zm0 3v1h9v-1zm11 0v1h4v-1zm-20 4v7h7v-7zm1 1h5v5h-5zm8 0v1h15v-1zm11.398438 2-5.111329 5.109375-3.287109 3.289063v3.601562h3.601562l8.398438-8.398438zm-11.398438 1v1h6v-1zm9.349609 2.490234 2.160157 2.160157-3.173828 3.175781v-.675781l-1.013672.023437h-1.03711v-1.037109l.001953-.583985 1.439453-1.441406zm-18.349609 1.509766v7h7v-7zm1 1h5v5h-5zm8 0v1h3v-1zm5.273438 1.564453v1.621094h2.027343l.021485.654297-1.080078 1.080078h-1.441407l-.720703-.720703v-1.441407zm-5.273438 1.435547v1h2v-1z" fill="#232629"/></svg>

<?xml version="1.0" encoding="UTF-8" standalone="no"?>
<svg
   xmlns:dc="http://purl.org/dc/elements/1.1/"
   xmlns:cc="http://creativecommons.org/ns#"
   xmlns:rdf="http://www.w3.org/1999/02/22-rdf-syntax-ns#"
   xmlns:svg="http://www.w3.org/2000/svg"
   xmlns="http://www.w3.org/2000/svg"
   xmlns:sodipodi="http://sodipodi.sourceforge.net/DTD/sodipodi-0.dtd"
   xmlns:inkscape="http://www.inkscape.org/namespaces/inkscape"
   viewBox="0 0 32 32"
   version="1.1"
   id="svg4"
   sodipodi:docname="outlinemode.svg"
   inkscape:version="0.92.4 (5da689c313, 2019-01-14)">
  <metadata
     id="metadata10">
    <rdf:RDF>
      <cc:Work
         rdf:about="">
        <dc:format>image/svg+xml</dc:format>
        <dc:type
           rdf:resource="http://purl.org/dc/dcmitype/StillImage" />
      </cc:Work>
    </rdf:RDF>
  </metadata>
  <defs
     id="defs8" />
  <sodipodi:namedview
     pagecolor="#ffffff"
     bordercolor="#666666"
     borderopacity="1"
     objecttolerance="10"
     gridtolerance="10"
     guidetolerance="10"
     inkscape:pageopacity="0"
     inkscape:pageshadow="2"
     inkscape:window-width="1920"
     inkscape:window-height="1011"
     id="namedview6"
     showgrid="true"
     inkscape:zoom="20.85965"
     inkscape:cx="9.9947062"
     inkscape:cy="19.556871"
     inkscape:window-x="0"
     inkscape:window-y="32"
     inkscape:window-maximized="1"
     inkscape:current-layer="svg4">
    <inkscape:grid
       type="xygrid"
       id="grid817" />
  </sodipodi:namedview>
  <path
     d="m 4,5 v 7 h 7 V 5 Z m 1,1 h 5 v 5 H 5 Z m 8,0 V 7 H 28 V 6 Z m 0,3 v 1 H 28 V 9 Z m -9,4 v 7 h 7 v -7 z m 1,1 h 5 v 5 H 5 Z m 8,0 v 1 H 28 V 14 Z M 24.398438,16 19.287109,21.109375 16,24.398438 V 28 h 3.601562 L 28,19.601562 Z M 13,17 v 1 h 7 v -1 z m 9.349609,2.490234 2.160157,2.160157 -3.173828,3.175781 v -0.675781 l -1.013672,0.02344 h -1.03711 v -1.037109 l 0.002,-0.583985 1.439453,-1.441406 z M 4,21 v 7 h 7 v -7 z m 1,1 h 5 v 5 H 5 Z m 8,0 v 1 h 3 v -1 z m 5.273438,1.564453 v 1.621094 h 2.027343 l 0.02148,0.654297 -1.080078,1.080078 H 17.800781 L 17.080078,26.199219 V 24.757812 Z M 13,25 v 1 h 2 v -1 z"
     id="path2"
     inkscape:connector-curvature="0"
     style="fill:#232629"
     sodipodi:nodetypes="cccccccccccccccccccccccccccccccccccccccccccccccccccccccccccccccccccccccccccccccccccccc" />
</svg>
